svgs/ninja.svg

<svg width="192" height="192" viewBox="0 0 192 192" fill="none" xmlns="http://www.w3.org/2000/svg">
<path d="M38.5213 36.0001L22 127.18L34.3589 126.831L27.7188 156.79L76.6266 156.68L83.5698 124.508L71.4043 124.448L76.5589 100.713C84.3412 80.8637 116.554 85.9929 112.92 100.713L108.439 123.781L120.415 123.671L113.218 156.622H162.478L170 121.145L157.775 121.369C167.473 90.5526 166.358 50.5589 153.067 42.2098C137.007 32.1203 96.8104 36.0001 81.466 62.2249L86.6185 36.0647L38.5213 36.0001Z" stroke="black" stroke-width="12" stroke-linecap="round" stroke-linejoin="round"/>
</svg>

<svg xmlns="http://www.w3.org/2000/svg" width="192" height="192" fill="none"><path stroke="#000" stroke-linecap="round" stroke-linejoin="round" stroke-width="12" d="M38.521 36 22 127.18l12.359-.349-6.64 29.959 48.908-.11 6.943-32.172-12.166-.06 5.155-23.735c7.782-19.85 39.995-14.72 36.361 0l-4.481 23.068 11.976-.11-7.197 32.951h49.26L170 121.145l-12.225.224c9.698-30.816 8.583-70.81-4.708-79.16C137.007 32.12 96.81 36 81.466 62.226l5.153-26.16z"/></svg>
